X: 02088
T: NEFFA MARCH
C: Bob McQuillen Apr '74
B: Bob's Note Book 1&2 #88
R: jig, march
Z: 2019 John Chambers <jc:trillian.mit.edu>
M: 6/8
L: 1/8
K: G
zD \
| GAB A2F | GBd gfg | a2g f2e | ded cBA |\
| GAB AGF | GBd g2g | fed cBA |1 BGG G :|2 G4 ||
|: FG \
| ABA GFG | A2B cBA | d2g d2c | BAB G2d |\
| ggg ggg | gba gfe | def gdc | BGG G :|
%%begintext align
%% With thanks for Friends
%% Fun & Frolic at the New
%% England Folk Festivals.
%%endtext

%%sep 1 1 500

%%sep 1 1 500

